svgs/generic_icon.svg

<svg xmlns="http://www.w3.org/2000/svg" viewBox="0 0 192 192"><path d="m43.558 140.887-26.205-.088-.537-.515c-1.112-1.065-1.098-2.136.107-8.267 2.007-10.209 6.012-19.901 11.965-28.955 2.795-4.252 5.95-8.067 10.076-12.184 5.296-5.284 10.559-9.368 16.249-12.61.876-.499 1.593-.927 1.593-.95 0-.024-.614-1.088-1.365-2.366l-3.767-6.41a5381.692 5381.692 0 0 1-4.437-7.565c-1.12-1.913-2.477-4.228-3.016-5.146-.771-1.312-.979-1.823-.979-2.399 0-1.508.939-2.455 2.435-2.455 1.179 0 1.699.379 2.565 1.872.375.644 1.724 2.933 2.998 5.085a5475.025 5475.025 0 0 1 9.261 15.693c.375.645.741 1.209.813 1.254.073.045 1.386-.457 2.918-1.115 10.016-4.305 20.604-6.473 31.616-6.474 4.406-.001 6.867.163 11.13.743a80.151 80.151 0 0 1 21.431 6.083c1.1.488 2.057.822 2.127.742.123-.139 3.17-5.264 6.962-11.709 7.355-12.502 7.12-12.172 8.66-12.173 1.486-.001 2.468.969 2.469 2.437.001.864.394.155-7.48 13.475-5.202 8.799-6.084 10.308-6.084 10.41 0 .05.724.517 1.609 1.038 19.485 11.473 33.422 30.741 38.04 52.592.651 3.081 1.219 6.527 1.219 7.398 0 1.027-.591 2.005-1.445 2.393-.712.323-1.942.33-52.726.293-28.599-.021-63.79-.078-78.202-.127Zm126.981-5.001c-.001-.452-.826-4.379-1.397-6.652-4.542-18.059-15.772-33.908-31.383-44.293-12.344-8.21-26.798-12.609-41.563-12.649-13.872-.037-27.268 3.656-39.216 10.813-18.503 11.084-31.659 30.127-35.393 51.234a36.744 36.744 0 0 0-.254 1.547c-.002.072 33.569.13 74.602.13 41.032 0 74.605-.058 74.604-.13ZM56.211 118.175c-3.462-1.102-5.773-4.784-5.178-8.252.434-2.531 1.967-4.568 4.252-5.649 6.093-2.883 12.562 3.229 10.095 9.536-.681 1.741-2.017 3.12-3.878 4.006-.98.467-1.351.544-2.783.585-1.133.032-1.92-.039-2.508-.226Zm3.804-5.304c1.653-1.451.828-4.056-1.355-4.277-1.919-.195-3.245 1.713-2.402 3.456.471.973 1.092 1.348 2.238 1.354.769.004 1-.077 1.519-.533Zm71.309 5.337c-2.401-.761-4.095-2.385-4.953-4.748-.333-.917-.381-1.338-.323-2.796.061-1.503.139-1.858.628-2.852.733-1.489 1.99-2.745 3.508-3.504 4.468-2.235 9.787.569 10.653 5.615.601 3.507-1.757 7.214-5.248 8.251-1.108.329-3.28.346-4.265.034Zm3.412-5.1c.706-.417 1.268-1.627 1.135-2.445-.211-1.302-1.367-2.2-2.661-2.069-.988.1-1.711.661-2.072 1.606-.389 1.019-.15 1.91.716 2.671.512.45.757.538 1.493.538.522 0 1.087-.122 1.389-.301Z" stroke="#000" stroke-width="8"/></svg>

<svg
    xmlns="http://www.w3.org/2000/svg"
    viewBox="0 0 192 192"
    id="vector">
    <path
        id="path"
        d="M 43.558 140.887 L 17.353 140.799 L 16.816 140.284 C 15.704 139.219 15.718 138.148 16.923 132.017 C 18.93 121.808 22.935 112.116 28.888 103.062 C 31.683 98.81 34.838 94.995 38.964 90.878 C 44.26 85.594 49.523 81.51 55.213 78.268 C 56.089 77.769 56.806 77.341 56.806 77.318 C 56.806 77.294 56.192 76.23 55.441 74.952 C 54.691 73.674 52.995 70.789 51.674 68.542 C 50.353 66.294 48.356 62.89 47.237 60.977 C 46.117 59.064 44.76 56.749 44.221 55.831 C 43.45 54.519 43.242 54.008 43.242 53.432 C 43.242 51.924 44.181 50.977 45.677 50.977 C 46.856 50.977 47.376 51.356 48.242 52.849 C 48.617 53.493 49.966 55.782 51.24 57.934 C 54.654 63.7 59.719 72.283 60.501 73.627 C 60.876 74.272 61.242 74.836 61.314 74.881 C 61.387 74.926 62.7 74.424 64.232 73.766 C 74.248 69.461 84.836 67.293 95.848 67.292 C 100.254 67.291 102.715 67.455 106.978 68.035 C 114.274 69.028 121.666 71.126 128.409 74.118 C 129.509 74.606 130.466 74.94 130.536 74.86 C 130.659 74.721 133.706 69.596 137.498 63.151 C 144.853 50.649 144.618 50.979 146.158 50.978 C 147.644 50.977 148.626 51.947 148.627 53.415 C 148.628 54.279 149.021 53.57 141.147 66.89 C 135.945 75.689 135.063 77.198 135.063 77.3 C 135.063 77.35 135.787 77.817 136.672 78.338 C 156.157 89.811 170.094 109.079 174.712 130.93 C 175.363 134.011 175.931 137.457 175.931 138.328 C 175.931 139.355 175.34 140.333 174.486 140.721 C 173.774 141.044 172.544 141.051 121.76 141.014 C 93.161 140.993 57.97 140.936 43.558 140.887 Z M 170.539 135.886 C 170.538 135.434 169.713 131.507 169.142 129.234 C 164.6 111.175 153.37 95.326 137.759 84.941 C 125.415 76.731 110.961 72.332 96.196 72.292 C 82.324 72.255 68.928 75.948 56.98 83.105 C 38.477 94.189 25.321 113.232 21.587 134.339 C 21.449 135.118 21.335 135.814 21.333 135.886 C 21.331 135.958 54.902 136.016 95.935 136.016 C 136.967 136.016 170.54 135.958 170.539 135.886 Z M 56.211 118.175 C 52.749 117.073 50.438 113.391 51.033 109.923 C 51.467 107.392 53 105.355 55.285 104.274 C 61.378 101.391 67.847 107.503 65.38 113.81 C 64.699 115.551 63.363 116.93 61.502 117.816 C 60.522 118.283 60.151 118.36 58.719 118.401 C 57.586 118.433 56.799 118.362 56.211 118.175 Z M 60.015 112.871 C 61.668 111.42 60.843 108.815 58.66 108.594 C 56.741 108.399 55.415 110.307 56.258 112.05 C 56.729 113.023 57.35 113.398 58.496 113.404 C 59.265 113.408 59.496 113.327 60.015 112.871 Z M 131.324 118.208 C 128.923 117.447 127.229 115.823 126.371 113.46 C 126.038 112.543 125.99 112.122 126.048 110.664 C 126.109 109.161 126.187 108.806 126.676 107.812 C 127.409 106.323 128.666 105.067 130.184 104.308 C 134.652 102.073 139.971 104.877 140.837 109.923 C 141.438 113.43 139.08 117.137 135.589 118.174 C 134.481 118.503 132.309 118.52 131.324 118.208 Z M 134.736 113.108 C 135.442 112.691 136.004 111.481 135.871 110.663 C 135.66 109.361 134.504 108.463 133.21 108.594 C 132.222 108.694 131.499 109.255 131.138 110.2 C 130.749 111.219 130.988 112.11 131.854 112.871 C 132.366 113.321 132.611 113.409 133.347 113.409 C 133.869 113.409 134.434 113.287 134.736 113.108 Z"
        fill="#000000"
        stroke="#000000"
        stroke-width="8"/>
</svg>
